icons/modern/black-nib.svg

<svg width="32" height="32" viewBox="0 0 32 32" fill="none" xmlns="http://www.w3.org/2000/svg">
<rect x="20.1639" y="1.05078" width="15.6061" height="10.0249" rx="2.5" transform="rotate(45 20.1639 1.05078)" fill="url(#paint0_linear_18_22275)"/>
<rect x="20.1639" y="1.05078" width="15.6061" height="10.0249" rx="2.5" transform="rotate(45 20.1639 1.05078)" fill="url(#paint1_linear_18_22275)"/>
<rect x="20.1639" y="1.05078" width="15.6061" height="10.0249" rx="2.5" transform="rotate(45 20.1639 1.05078)" fill="url(#paint2_linear_18_22275)"/>
<rect x="20.1639" y="1.05078" width="15.6061" height="10.0249" rx="2.5" transform="rotate(45 20.1639 1.05078)" fill="url(#paint3_linear_18_22275)"/>
<g filter="url(#filter0_ii_18_22275)">
<path d="M15.1912 9.53125L22.6287 17.25L17.9377 24.9162C17.5479 25.5532 16.9345 26.022 16.2175 26.2308L3.62314 29.8982C2.86649 30.1186 2.16417 29.4179 2.3828 28.6607L6.01004 16.0989C6.21711 15.3817 6.68409 14.7676 7.31975 14.3763L15.1912 9.53125Z" fill="#B2A6BB"/>
</g>
<path d="M15.1912 9.53125L22.6287 17.25L17.9377 24.9162C17.5479 25.5532 16.9345 26.022 16.2175 26.2308L3.62314 29.8982C2.86649 30.1186 2.16417 29.4179 2.3828 28.6607L6.01004 16.0989C6.21711 15.3817 6.68409 14.7676 7.31975 14.3763L15.1912 9.53125Z" fill="url(#paint4_linear_18_22275)"/>
<path d="M15.1912 9.53125L22.6287 17.25L17.9377 24.9162C17.5479 25.5532 16.9345 26.022 16.2175 26.2308L3.62314 29.8982C2.86649 30.1186 2.16417 29.4179 2.3828 28.6607L6.01004 16.0989C6.21711 15.3817 6.68409 14.7676 7.31975 14.3763L15.1912 9.53125Z" fill="url(#paint5_linear_18_22275)"/>
<path d="M15.1912 9.53125L22.6287 17.25L17.9377 24.9162C17.5479 25.5532 16.9345 26.022 16.2175 26.2308L3.62314 29.8982C2.86649 30.1186 2.16417 29.4179 2.3828 28.6607L6.01004 16.0989C6.21711 15.3817 6.68409 14.7676 7.31975 14.3763L15.1912 9.53125Z" fill="url(#paint6_linear_18_22275)"/>
<path d="M15.1912 9.53125L22.6287 17.25L17.9377 24.9162C17.5479 25.5532 16.9345 26.022 16.2175 26.2308L3.62314 29.8982C2.86649 30.1186 2.16417 29.4179 2.3828 28.6607L6.01004 16.0989C6.21711 15.3817 6.68409 14.7676 7.31975 14.3763L15.1912 9.53125Z" fill="url(#paint7_radial_18_22275)"/>
<g filter="url(#filter1_i_18_22275)">
<path d="M25.9412 17.3438L25.8781 17.4069C24.9018 18.3832 23.3189 18.3832 22.3426 17.4069L14.843 9.90723C13.8666 8.93092 13.8666 7.348 14.843 6.37169L14.9061 6.30859L25.9412 17.3438Z" fill="url(#paint8_linear_18_22275)"/>
</g>
<path d="M25.9412 17.3438L25.8781 17.4069C24.9018 18.3832 23.3189 18.3832 22.3426 17.4069L14.843 9.90723C13.8666 8.93092 13.8666 7.348 14.843 6.37169L14.9061 6.30859L25.9412 17.3438Z" fill="url(#paint9_radial_18_22275)"/>
<g filter="url(#filter2_ii_18_22275)">
<path d="M3.80504 29.7152C3.68571 29.8353 3.53798 29.9338 3.36876 29.939C2.8145 29.9559 2.34753 29.5024 2.34231 28.9523C2.34064 28.7763 2.44101 28.6205 2.56497 28.4955L9.96194 21.0373C10.1993 20.798 10.2494 20.4375 10.1712 20.1096C10.123 19.9073 10.0974 19.6963 10.0974 19.4792C10.0974 17.9842 11.3094 16.7722 12.8045 16.7722C14.2995 16.7722 15.5115 17.9842 15.5115 19.4792C15.5115 20.9743 14.2995 22.1863 12.8045 22.1863C12.5687 22.1863 12.34 22.1561 12.1219 22.0995C11.7857 22.0122 11.4119 22.0602 11.167 22.3066L3.80504 29.7152Z" fill="url(#paint10_linear_18_22275)"/>
<path d="M3.80504 29.7152C3.68571 29.8353 3.53798 29.9338 3.36876 29.939C2.8145 29.9559 2.34753 29.5024 2.34231 28.9523C2.34064 28.7763 2.44101 28.6205 2.56497 28.4955L9.96194 21.0373C10.1993 20.798 10.2494 20.4375 10.1712 20.1096C10.123 19.9073 10.0974 19.6963 10.0974 19.4792C10.0974 17.9842 11.3094 16.7722 12.8045 16.7722C14.2995 16.7722 15.5115 17.9842 15.5115 19.4792C15.5115 20.9743 14.2995 22.1863 12.8045 22.1863C12.5687 22.1863 12.34 22.1561 12.1219 22.0995C11.7857 22.0122 11.4119 22.0602 11.167 22.3066L3.80504 29.7152Z" fill="url(#paint11_radial_18_22275)"/>
<path d="M3.80504 29.7152C3.68571 29.8353 3.53798 29.9338 3.36876 29.939C2.8145 29.9559 2.34753 29.5024 2.34231 28.9523C2.34064 28.7763 2.44101 28.6205 2.56497 28.4955L9.96194 21.0373C10.1993 20.798 10.2494 20.4375 10.1712 20.1096C10.123 19.9073 10.0974 19.6963 10.0974 19.4792C10.0974 17.9842 11.3094 16.7722 12.8045 16.7722C14.2995 16.7722 15.5115 17.9842 15.5115 19.4792C15.5115 20.9743 14.2995 22.1863 12.8045 22.1863C12.5687 22.1863 12.34 22.1561 12.1219 22.0995C11.7857 22.0122 11.4119 22.0602 11.167 22.3066L3.80504 29.7152Z" fill="url(#paint12_linear_18_22275)"/>
</g>
<g filter="url(#filter3_f_18_22275)">
<rect x="20.6756" y="2.57812" width="12.8384" height="1.74567" rx="0.872835" transform="rotate(45 20.6756 2.57812)" fill="url(#paint13_linear_18_22275)"/>
</g>
<g filter="url(#filter4_f_18_22275)">
<circle cx="12.8366" cy="19.5312" r="2.0625" stroke="url(#paint14_linear_18_22275)" stroke-width="0.3"/>
</g>
<g filter="url(#filter5_f_18_22275)">
<path d="M2.90997 29.4062L11.0506 21" stroke="url(#paint15_linear_18_22275)" stroke-width="0.3"/>
</g>
<defs>
<filter id="filter0_ii_18_22275" x="2.34229" y="8.53125" width="21.0364" height="21.4082" filterUnits="userSpaceOnUse" color-interpolation-filters="sRGB">
<feFlood flood-opacity="0" result="BackgroundImageFix"/>
<feBlend mode="normal" in="SourceGraphic" in2="BackgroundImageFix" result="shape"/>
<feColorMatrix in="SourceAlpha" type="matrix" values="0 0 0 0 0 0 0 0 0 0 0 0 0 0 0 0 0 0 127 0" result="hardAlpha"/>
<feOffset dx="0.5" dy="-1"/>
<feGaussianBlur stdDeviation="1.5"/>
<feComposite in2="hardAlpha" operator="arithmetic" k2="-1" k3="1"/>
<feColorMatrix type="matrix" values="0 0 0 0 0.619608 0 0 0 0 0.494118 0 0 0 0 0.737255 0 0 0 1 0"/>
<feBlend mode="normal" in2="shape" result="effect1_innerShadow_18_22275"/>
<feColorMatrix in="SourceAlpha" type="matrix" values="0 0 0 0 0 0 0 0 0 0 0 0 0 0 0 0 0 0 127 0" result="hardAlpha"/>
<feOffset dx="2.5"/>
<feGaussianBlur stdDeviation="0.375"/>
<feComposite in2="hardAlpha" operator="arithmetic" k2="-1" k3="1"/>
<feColorMatrix type="matrix" values="0 0 0 0 0.67451 0 0 0 0 0.65098 0 0 0 0 0.701961 0 0 0 1 0"/>
<feBlend mode="normal" in2="effect1_innerShadow_18_22275" result="effect2_innerShadow_18_22275"/>
</filter>
<filter id="filter1_i_18_22275" x="14.1107" y="5.80859" width="11.8305" height="12.3306" filterUnits="userSpaceOnUse" color-interpolation-filters="sRGB">
<feFlood flood-opacity="0" result="BackgroundImageFix"/>
<feBlend mode="normal" in="SourceGraphic" in2="BackgroundImageFix" result="shape"/>
<feColorMatrix in="SourceAlpha" type="matrix" values="0 0 0 0 0 0 0 0 0 0 0 0 0 0 0 0 0 0 127 0" result="hardAlpha"/>
<feOffset dy="-0.5"/>
<feGaussianBlur stdDeviation="0.75"/>
<feComposite in2="hardAlpha" operator="arithmetic" k2="-1" k3="1"/>
<feColorMatrix type="matrix" values="0 0 0 0 0.784314 0 0 0 0 0.443137 0 0 0 0 0.341176 0 0 0 1 0"/>
<feBlend mode="normal" in2="shape" result="effect1_innerShadow_18_22275"/>
</filter>
<filter id="filter2_ii_18_22275" x="1.84229" y="16.2722" width="13.7192" height="13.7172" filterUnits="userSpaceOnUse" color-interpolation-filters="sRGB">
<feFlood flood-opacity="0" result="BackgroundImageFix"/>
<feBlend mode="normal" in="SourceGraphic" in2="BackgroundImageFix" result="shape"/>
<feColorMatrix in="SourceAlpha" type="matrix" values="0 0 0 0 0 0 0 0 0 0 0 0 0 0 0 0 0 0 127 0" result="hardAlpha"/>
<feOffset dx="-0.5" dy="-0.5"/>
<feGaussianBlur stdDeviation="0.5"/>
<feComposite in2="hardAlpha" operator="arithmetic" k2="-1" k3="1"/>
<feColorMatrix type="matrix" values="0 0 0 0 0.388235 0 0 0 0 0.364706 0 0 0 0 0.427451 0 0 0 1 0"/>
<feBlend mode="normal" in2="shape" result="effect1_innerShadow_18_22275"/>
<feColorMatrix in="SourceAlpha" type="matrix" values="0 0 0 0 0 0 0 0 0 0 0 0 0 0 0 0 0 0 127 0" result="hardAlpha"/>
<feOffset dx="0.05" dy="0.05"/>
<feGaussianBlur stdDeviation="0.2"/>
<feComposite in2="hardAlpha" operator="arithmetic" k2="-1" k3="1"/>
<feColorMatrix type="matrix" values="0 0 0 0 0.505882 0 0 0 0 0.486275 0 0 0 0 0.541176 0 0 0 1 0"/>
<feBlend mode="normal" in2="effect1_innerShadow_18_22275" result="effect2_innerShadow_18_22275"/>
</filter>
<filter id="filter3_f_18_22275" x="18.3028" y="1.4397" width="12.5894" height="12.5894" filterUnits="userSpaceOnUse" color-interpolation-filters="sRGB">
<feFlood flood-opacity="0" result="BackgroundImageFix"/>
<feBlend mode="normal" in="SourceGraphic" in2="BackgroundImageFix" result="shape"/>
<feGaussianBlur stdDeviation="0.75" result="effect1_foregroundBlur_18_22275"/>
</filter>
<filter id="filter4_f_18_22275" x="10.0241" y="16.7188" width="5.62499" height="5.6248" filterUnits="userSpaceOnUse" color-interpolation-filters="sRGB">
<feFlood flood-opacity="0" result="BackgroundImageFix"/>
<feBlend mode="normal" in="SourceGraphic" in2="BackgroundImageFix" result="shape"/>
<feGaussianBlur stdDeviation="0.3" result="effect1_foregroundBlur_18_22275"/>
</filter>
<filter id="filter5_f_18_22275" x="2.35222" y="20.4458" width="9.25614" height="9.51487" filterUnits="userSpaceOnUse" color-interpolation-filters="sRGB">
<feFlood flood-opacity="0" result="BackgroundImageFix"/>
<feBlend mode="normal" in="SourceGraphic" in2="BackgroundImageFix" result="shape"/>
<feGaussianBlur stdDeviation="0.225" result="effect1_foregroundBlur_18_22275"/>
</filter>
<linearGradient id="paint0_linear_18_22275" x1="28.5442" y1="10.5415" x2="27.6161" y2="1.12813" gradientUnits="userSpaceOnUse">
<stop stop-color="#513A63"/>
<stop offset="1" stop-color="#463E67"/>
</linearGradient>
<linearGradient id="paint1_linear_18_22275" x1="20.0589" y1="6.82918" x2="22.9978" y2="6.80708" gradientUnits="userSpaceOnUse">
<stop offset="0.437637" stop-color="#3B3559"/>
<stop offset="1" stop-color="#463456" stop-opacity="0"/>
</linearGradient>
<linearGradient id="paint2_linear_18_22275" x1="35.8142" y1="5.56965" x2="33.494" y2="5.54755" gradientUnits="userSpaceOnUse">
<stop stop-color="#473C63"/>
<stop offset="1" stop-color="#473C63" stop-opacity="0"/>
</linearGradient>
<linearGradient id="paint3_linear_18_22275" x1="19.7326" y1="6.28136" x2="21.0713" y2="6.25287" gradientUnits="userSpaceOnUse">
<stop stop-color="#5C5567"/>
<stop offset="1" stop-color="#5C5567" stop-opacity="0"/>
</linearGradient>
<linearGradient id="paint4_linear_18_22275" x1="8.69122" y1="29.3125" x2="8.28497" y2="27.1875" gradientUnits="userSpaceOnUse">
<stop stop-color="#9F80BB"/>
<stop offset="1" stop-color="#9F80BB" stop-opacity="0"/>
</linearGradient>
<linearGradient id="paint5_linear_18_22275" x1="3.72247" y1="22.75" x2="4.72247" y2="23.0625" gradientUnits="userSpaceOnUse">
<stop stop-color="#BEBDC0"/>
<stop offset="1" stop-color="#BEBDC0" stop-opacity="0"/>
</linearGradient>
<linearGradient id="paint6_linear_18_22275" x1="22.8162" y1="16.9687" x2="20.66" y2="18.8125" gradientUnits="userSpaceOnUse">
<stop offset="0.226523" stop-color="#886A8C"/>
<stop offset="1" stop-color="#A08EAA" stop-opacity="0"/>
</linearGradient>
<radialGradient id="paint7_radial_18_22275" cx="0" cy="0" r="1" gradientUnits="userSpaceOnUse" gradientTransform="translate(18.91 23.3125) rotate(-58.4382) scale(5.13452 2.60399)">
<stop stop-color="#BCAECB"/>
<stop offset="1" stop-color="#BCAECB" stop-opacity="0"/>
</radialGradient>
<linearGradient id="paint8_linear_18_22275" x1="18.537" y1="13.5482" x2="20.5108" y2="11.4535" gradientUnits="userSpaceOnUse">
<stop stop-color="#F2A65B"/>
<stop offset="1" stop-color="#F6AE5E"/>
</linearGradient>
<radialGradient id="paint9_radial_18_22275" cx="0" cy="0" r="1" gradientUnits="userSpaceOnUse" gradientTransform="translate(23.8945 9.8422) rotate(-168.594) scale(9.98093 12.6284)">
<stop offset="0.876511" stop-color="#EEB481" stop-opacity="0"/>
<stop offset="1" stop-color="#EEB481"/>
</radialGradient>
<linearGradient id="paint10_linear_18_22275" x1="13.5975" y1="18.5001" x2="2.6912" y2="29.4688" gradientUnits="userSpaceOnUse">
<stop stop-color="#898098"/>
<stop offset="1" stop-color="#9892A2"/>
</linearGradient>
<radialGradient id="paint11_radial_18_22275" cx="0" cy="0" r="1" gradientUnits="userSpaceOnUse" gradientTransform="translate(7.94121 28.5938) rotate(-63.4526) scale(13.2149 7.46285)">
<stop offset="0.769909" stop-color="#887C98" stop-opacity="0"/>
<stop offset="0.963438" stop-color="#6C5981"/>
</radialGradient>
<linearGradient id="paint12_linear_18_22275" x1="3.00372" y1="27.7813" x2="4.15997" y2="28.6251" gradientUnits="userSpaceOnUse">
<stop stop-color="#9083A3"/>
<stop offset="1" stop-color="#9083A3" stop-opacity="0"/>
</linearGradient>
<linearGradient id="paint13_linear_18_22275" x1="21.0427" y1="3.72968" x2="33.38" y2="3.39311" gradientUnits="userSpaceOnUse">
<stop stop-color="#5C5D7E"/>
<stop offset="1" stop-color="#646585"/>
</linearGradient>
<linearGradient id="paint14_linear_18_22275" x1="10.5193" y1="20.3594" x2="12.1443" y2="19.7344" gradientUnits="userSpaceOnUse">
<stop stop-color="#B3AEBB"/>
<stop offset="1" stop-color="#B3AEBB" stop-opacity="0"/>
</linearGradient>
<linearGradient id="paint15_linear_18_22275" x1="2.65997" y1="29.1875" x2="12.4278" y2="19.6477" gradientUnits="userSpaceOnUse">
<stop stop-color="#B3AEBB"/>
<stop offset="1" stop-color="#B3AEBB" stop-opacity="0"/>
</linearGradient>
</defs>
</svg>

<svg width="32" height="32" fill="none" xmlns="http://www.w3.org/2000/svg"><rect x="20.164" y="1.051" width="15.606" height="10.025" rx="2.5" transform="rotate(45 20.164 1.05)" fill="url(#a)"/><rect x="20.164" y="1.051" width="15.606" height="10.025" rx="2.5" transform="rotate(45 20.164 1.05)" fill="url(#b)"/><rect x="20.164" y="1.051" width="15.606" height="10.025" rx="2.5" transform="rotate(45 20.164 1.05)" fill="url(#c)"/><rect x="20.164" y="1.051" width="15.606" height="10.025" rx="2.5" transform="rotate(45 20.164 1.05)" fill="url(#d)"/><g filter="url(#e)"><path d="m15.191 9.531 7.438 7.719-4.691 7.666a3 3 0 0 1-1.72 1.315L3.623 29.898a1 1 0 0 1-1.24-1.237L6.01 16.099a3 3 0 0 1 1.31-1.723l7.871-4.845Z" fill="#B2A6BB"/></g><path d="m15.191 9.531 7.438 7.719-4.691 7.666a3 3 0 0 1-1.72 1.315L3.623 29.898a1 1 0 0 1-1.24-1.237L6.01 16.099a3 3 0 0 1 1.31-1.723l7.871-4.845Z" fill="url(#f)"/><path d="m15.191 9.531 7.438 7.719-4.691 7.666a3 3 0 0 1-1.72 1.315L3.623 29.898a1 1 0 0 1-1.24-1.237L6.01 16.099a3 3 0 0 1 1.31-1.723l7.871-4.845Z" fill="url(#g)"/><path d="m15.191 9.531 7.438 7.719-4.691 7.666a3 3 0 0 1-1.72 1.315L3.623 29.898a1 1 0 0 1-1.24-1.237L6.01 16.099a3 3 0 0 1 1.31-1.723l7.871-4.845Z" fill="url(#h)"/><path d="m15.191 9.531 7.438 7.719-4.691 7.666a3 3 0 0 1-1.72 1.315L3.623 29.898a1 1 0 0 1-1.24-1.237L6.01 16.099a3 3 0 0 1 1.31-1.723l7.871-4.845Z" fill="url(#i)"/><g filter="url(#j)"><path d="m25.941 17.344-.063.063a2.5 2.5 0 0 1-3.535 0l-7.5-7.5a2.5 2.5 0 0 1 0-3.535l.063-.063 11.035 11.035Z" fill="url(#k)"/></g><path d="m25.941 17.344-.063.063a2.5 2.5 0 0 1-3.535 0l-7.5-7.5a2.5 2.5 0 0 1 0-3.535l.063-.063 11.035 11.035Z" fill="url(#l)"/><g filter="url(#m)"><path d="M3.805 29.715c-.12.12-.267.219-.436.224a1.004 1.004 0 0 1-1.027-.987c-.001-.176.099-.332.223-.457l7.397-7.458c.237-.239.287-.6.21-.927a2.707 2.707 0 1 1 1.95 1.99c-.336-.088-.71-.04-.955.207l-7.362 7.408Z" fill="url(#n)"/><path d="M3.805 29.715c-.12.12-.267.219-.436.224a1.004 1.004 0 0 1-1.027-.987c-.001-.176.099-.332.223-.457l7.397-7.458c.237-.239.287-.6.21-.927a2.707 2.707 0 1 1 1.95 1.99c-.336-.088-.71-.04-.955.207l-7.362 7.408Z" fill="url(#o)"/><path d="M3.805 29.715c-.12.12-.267.219-.436.224a1.004 1.004 0 0 1-1.027-.987c-.001-.176.099-.332.223-.457l7.397-7.458c.237-.239.287-.6.21-.927a2.707 2.707 0 1 1 1.95 1.99c-.336-.088-.71-.04-.955.207l-7.362 7.408Z" fill="url(#p)"/></g><g filter="url(#q)"><rect x="20.676" y="2.578" width="12.838" height="1.746" rx=".873" transform="rotate(45 20.676 2.578)" fill="url(#r)"/></g><g filter="url(#s)"><circle cx="12.837" cy="19.531" r="2.063" stroke="url(#t)" stroke-width=".3"/></g><g filter="url(#u)"><path d="M2.91 29.406 11.05 21" stroke="url(#v)" stroke-width=".3"/></g><defs><linearGradient id="a" x1="28.544" y1="10.541" x2="27.616" y2="1.128" gradientUnits="userSpaceOnUse"><stop stop-color="#513A63"/><stop offset="1" stop-color="#463E67"/></linearGradient><linearGradient id="b" x1="20.059" y1="6.829" x2="22.998" y2="6.807" gradientUnits="userSpaceOnUse"><stop offset=".438" stop-color="#3B3559"/><stop offset="1" stop-color="#463456" stop-opacity="0"/></linearGradient><linearGradient id="c" x1="35.814" y1="5.57" x2="33.494" y2="5.548" gradientUnits="userSpaceOnUse"><stop stop-color="#473C63"/><stop offset="1" stop-color="#473C63" stop-opacity="0"/></linearGradient><linearGradient id="d" x1="19.733" y1="6.281" x2="21.071" y2="6.253" gradientUnits="userSpaceOnUse"><stop stop-color="#5C5567"/><stop offset="1" stop-color="#5C5567" stop-opacity="0"/></linearGradient><linearGradient id="f" x1="8.691" y1="29.313" x2="8.285" y2="27.188" gradientUnits="userSpaceOnUse"><stop stop-color="#9F80BB"/><stop offset="1" stop-color="#9F80BB" stop-opacity="0"/></linearGradient><linearGradient id="g" x1="3.722" y1="22.75" x2="4.722" y2="23.063" gradientUnits="userSpaceOnUse"><stop stop-color="#BEBDC0"/><stop offset="1" stop-color="#BEBDC0" stop-opacity="0"/></linearGradient><linearGradient id="h" x1="22.816" y1="16.969" x2="20.66" y2="18.813" gradientUnits="userSpaceOnUse"><stop offset=".227" stop-color="#886A8C"/><stop offset="1" stop-color="#A08EAA" stop-opacity="0"/></linearGradient><linearGradient id="k" x1="18.537" y1="13.548" x2="20.511" y2="11.454" gradientUnits="userSpaceOnUse"><stop stop-color="#F2A65B"/><stop offset="1" stop-color="#F6AE5E"/></linearGradient><linearGradient id="n" x1="13.598" y1="18.5" x2="2.691" y2="29.469" gradientUnits="userSpaceOnUse"><stop stop-color="#898098"/><stop offset="1" stop-color="#9892A2"/></linearGradient><linearGradient id="p" x1="3.004" y1="27.781" x2="4.16" y2="28.625" gradientUnits="userSpaceOnUse"><stop stop-color="#9083A3"/><stop offset="1" stop-color="#9083A3" stop-opacity="0"/></linearGradient><linearGradient id="r" x1="21.043" y1="3.73" x2="33.38" y2="3.393" gradientUnits="userSpaceOnUse"><stop stop-color="#5C5D7E"/><stop offset="1" stop-color="#646585"/></linearGradient><linearGradient id="t" x1="10.519" y1="20.359" x2="12.144" y2="19.734" gradientUnits="userSpaceOnUse"><stop stop-color="#B3AEBB"/><stop offset="1" stop-color="#B3AEBB" stop-opacity="0"/></linearGradient><linearGradient id="v" x1="2.66" y1="29.188" x2="12.428" y2="19.648" gradientUnits="userSpaceOnUse"><stop stop-color="#B3AEBB"/><stop offset="1" stop-color="#B3AEBB" stop-opacity="0"/></linearGradient><filter id="e" x="2.342" y="8.531" width="21.036" height="21.408" filterUnits="userSpaceOnUse" color-interpolation-filters="sRGB"><feFlood flood-opacity="0" result="BackgroundImageFix"/><feBlend in="SourceGraphic" in2="BackgroundImageFix" result="shape"/><feColorMatrix in="SourceAlpha" values="0 0 0 0 0 0 0 0 0 0 0 0 0 0 0 0 0 0 127 0" result="hardAlpha"/><feOffset dx=".5" dy="-1"/><feGaussianBlur stdDeviation="1.5"/><feComposite in2="hardAlpha" operator="arithmetic" k2="-1" k3="1"/><feColorMatrix values="0 0 0 0 0.619608 0 0 0 0 0.494118 0 0 0 0 0.737255 0 0 0 1 0"/><feBlend in2="shape" result="effect1_innerShadow_18_22275"/><feColorMatrix in="SourceAlpha" values="0 0 0 0 0 0 0 0 0 0 0 0 0 0 0 0 0 0 127 0" result="hardAlpha"/><feOffset dx="2.5"/><feGaussianBlur stdDeviation=".375"/><feComposite in2="hardAlpha" operator="arithmetic" k2="-1" k3="1"/><feColorMatrix values="0 0 0 0 0.67451 0 0 0 0 0.65098 0 0 0 0 0.701961 0 0 0 1 0"/><feBlend in2="effect1_innerShadow_18_22275" result="effect2_innerShadow_18_22275"/></filter><filter id="j" x="14.111" y="5.809" width="11.831" height="12.331" filterUnits="userSpaceOnUse" color-interpolation-filters="sRGB"><feFlood flood-opacity="0" result="BackgroundImageFix"/><feBlend in="SourceGraphic" in2="BackgroundImageFix" result="shape"/><feColorMatrix in="SourceAlpha" values="0 0 0 0 0 0 0 0 0 0 0 0 0 0 0 0 0 0 127 0" result="hardAlpha"/><feOffset dy="-.5"/><feGaussianBlur stdDeviation=".75"/><feComposite in2="hardAlpha" operator="arithmetic" k2="-1" k3="1"/><feColorMatrix values="0 0 0 0 0.784314 0 0 0 0 0.443137 0 0 0 0 0.341176 0 0 0 1 0"/><feBlend in2="shape" result="effect1_innerShadow_18_22275"/></filter><filter id="m" x="1.842" y="16.272" width="13.719" height="13.717" filterUnits="userSpaceOnUse" color-interpolation-filters="sRGB"><feFlood flood-opacity="0" result="BackgroundImageFix"/><feBlend in="SourceGraphic" in2="BackgroundImageFix" result="shape"/><feColorMatrix in="SourceAlpha" values="0 0 0 0 0 0 0 0 0 0 0 0 0 0 0 0 0 0 127 0" result="hardAlpha"/><feOffset dx="-.5" dy="-.5"/><feGaussianBlur stdDeviation=".5"/><feComposite in2="hardAlpha" operator="arithmetic" k2="-1" k3="1"/><feColorMatrix values="0 0 0 0 0.388235 0 0 0 0 0.364706 0 0 0 0 0.427451 0 0 0 1 0"/><feBlend in2="shape" result="effect1_innerShadow_18_22275"/><feColorMatrix in="SourceAlpha" values="0 0 0 0 0 0 0 0 0 0 0 0 0 0 0 0 0 0 127 0" result="hardAlpha"/><feOffset dx=".05" dy=".05"/><feGaussianBlur stdDeviation=".2"/><feComposite in2="hardAlpha" operator="arithmetic" k2="-1" k3="1"/><feColorMatrix values="0 0 0 0 0.505882 0 0 0 0 0.486275 0 0 0 0 0.541176 0 0 0 1 0"/><feBlend in2="effect1_innerShadow_18_22275" result="effect2_innerShadow_18_22275"/></filter><filter id="q" x="18.303" y="1.44" width="12.589" height="12.589" filterUnits="userSpaceOnUse" color-interpolation-filters="sRGB"><feFlood flood-opacity="0" result="BackgroundImageFix"/><feBlend in="SourceGraphic" in2="BackgroundImageFix" result="shape"/><feGaussianBlur stdDeviation=".75" result="effect1_foregroundBlur_18_22275"/></filter><filter id="s" x="10.024" y="16.719" width="5.625" height="5.625" filterUnits="userSpaceOnUse" color-interpolation-filters="sRGB"><feFlood flood-opacity="0" result="BackgroundImageFix"/><feBlend in="SourceGraphic" in2="BackgroundImageFix" result="shape"/><feGaussianBlur stdDeviation=".3" result="effect1_foregroundBlur_18_22275"/></filter><filter id="u" x="2.352" y="20.446" width="9.256" height="9.515" filterUnits="userSpaceOnUse" color-interpolation-filters="sRGB"><feFlood flood-opacity="0" result="BackgroundImageFix"/><feBlend in="SourceGraphic" in2="BackgroundImageFix" result="shape"/><feGaussianBlur stdDeviation=".225" result="effect1_foregroundBlur_18_22275"/></filter><radialGradient id="i" cx="0" cy="0" r="1" gradientUnits="userSpaceOnUse" gradientTransform="matrix(2.6875 -4.375 2.2188 1.36298 18.91 23.313)"><stop stop-color="#BCAECB"/><stop offset="1" stop-color="#BCAECB" stop-opacity="0"/></radialGradient><radialGradient id="l" cx="0" cy="0" r="1" gradientUnits="userSpaceOnUse" gradientTransform="matrix(-9.78381 -1.97383 2.4974 -12.379 23.895 9.842)"><stop offset=".877" stop-color="#EEB481" stop-opacity="0"/><stop offset="1" stop-color="#EEB481"/></radialGradient><radialGradient id="o" cx="0" cy="0" r="1" gradientUnits="userSpaceOnUse" gradientTransform="rotate(-63.453 27.096 7.875) scale(13.2149 7.46285)"><stop offset=".77" stop-color="#887C98" stop-opacity="0"/><stop offset=".963" stop-color="#6C5981"/></radialGradient></defs></svg>
